lib/svgs/alert-clock.svg

<svg xmlns="http://www.w3.org/2000/svg" viewBox="0 0 20 20">
    <path fill="#000" fill-rule="evenodd" d="M6.30769946,16.2149391 L4.93623593,17.5864026 C4.70192136,17.8207172 4.70192136,18.2006162 4.93623593,18.4349307 C5.17055051,18.6692453 5.55044949,18.6692453 5.78476407,18.4349307 L7.40622541,16.8134694 C8.21197526,17.1585886 9.09938467,17.3496667 10.0314167,17.3496667 C11.0849197,17.3496667 12.0814109,17.1055369 12.9674031,16.6707645 L14.7315693,18.4349307 C14.9658838,18.6692453 15.3457828,18.6692453 15.5800974,18.4349307 C15.814412,18.2006162 15.814412,17.8207172 15.5800974,17.5864026 L14.0204022,16.0267074 C15.6498135,14.8099172 16.70475,12.8663052 16.70475,10.6763333 C16.70475,6.99079582 13.7169542,4.003 10.0314167,4.003 C6.34587915,4.003 3.35808333,6.99079582 3.35808333,10.6763333 C3.35808333,12.9829885 4.52843016,15.0163318 6.30769946,16.2149391 L6.30769946,16.2149391 Z M15.50475,10.6763333 C15.50475,13.6991292 13.0542125,16.1496667 10.0314167,16.1496667 C7.00862085,16.1496667 4.55808333,13.6991292 4.55808333,10.6763333 C4.55808333,7.65353752 7.00862085,5.203 10.0314167,5.203 C13.0542125,5.203 15.50475,7.65353752 15.50475,10.6763333 L15.50475,10.6763333 Z M9.4315,10.6763333 C9.4315,10.8354632 9.4947141,10.9880756 9.60723593,11.1005974 L11.6689026,13.1622641 C11.9032172,13.3965786 12.2831162,13.3965786 12.5174307,13.1622641 C12.7517453,12.9279495 12.7517453,12.5480505 12.5174307,12.3137359 L10.6315,10.4215166 L10.6315,7.4905 C10.6315,7.15912915 10.3628708,6.8905 10.0315,6.8905 C9.70012915,6.8905 9.4315,7.15912915 9.4315,7.4905 L9.4315,10.6763333 Z M16.4192085,3.55383834 L13.5375418,1.78050501 C13.255327,1.6068344 12.885759,1.6948268 12.7120883,1.97704154 C12.5384177,2.25925628 12.6264101,2.62882438 12.9086249,2.80249499 L15.7902915,4.57582832 C16.0725063,4.74949893 16.4420744,4.66150653 16.615745,4.37929179 C16.7894156,4.09707705 16.7014232,3.72750895 16.4192085,3.55383834 L16.4192085,3.55383834 Z M4.27279179,4.57582832 L7.15445846,2.80249499 C7.4366732,2.62882438 7.5246656,2.25925628 7.35099499,1.97704154 C7.17732438,1.6948268 6.80775628,1.6068344 6.52554154,1.78050501 L3.64387488,3.55383834 C3.36166014,3.72750895 3.27366773,4.09707705 3.44733834,4.37929179 C3.62100895,4.66150653 3.99057705,4.74949893 4.27279179,4.57582832 L4.27279179,4.57582832 Z"/>
</svg>

<svg xmlns="http://www.w3.org/2000/svg" viewBox="0 0 20 20">
    <path fill="#000" fill-rule="evenodd" d="M6.308 16.215l-1.372 1.371a.6.6 0 1 0 .849.849l1.621-1.622a6.652 6.652 0 0 0 5.561-.142l1.765 1.764a.6.6 0 1 0 .848-.849l-1.56-1.56a6.673 6.673 0 1 0-7.713.188m9.198-5.538a5.473 5.473 0 1 1-10.947 0 5.473 5.473 0 0 1 10.947 0m-6.074 0a.6.6 0 0 0 .176.425l2.062 2.061a.6.6 0 0 0 .848-.848l-1.885-1.892V7.49a.6.6 0 0 0-1.2 0m6.987-3.936L13.538 1.78a.6.6 0 0 0-.63 1.021l2.882 1.774a.6.6 0 0 0 .63-1.022M4.272 4.576l2.881-1.774a.6.6 0 0 0-.628-1.021L3.644 3.554a.6.6 0 0 0 .629 1.022"/>
</svg>
